assets/components_previews/dynamic-rendering/light/match.svg

<svg xmlns="http://www.w3.org/2000/svg" width="320" height="232" fill="none" viewBox="0 0 320 232"><path fill="#AA99EC" fill-rule="evenodd" d="M165.118 103.222a1 1 0 0 0 .104 1.411l1.84 1.585c.366.316.587.508.728.657-.141.149-.362.341-.728.657l-1.84 1.586a1 1 0 0 0 1.306 1.515l1.84-1.586.043-.038c.349-.3.684-.589.923-.859.262-.296.541-.713.541-1.275s-.279-.979-.541-1.275c-.239-.27-.574-.558-.923-.859l-.043-.038-1.84-1.585a1 1 0 0 0-1.41.104m-2.486 0a1 1 0 0 1-.104 1.411l-1.84 1.585c-.366.316-.587.508-.728.657.141.149.362.341.728.657l1.84 1.586a1 1 0 0 1-1.306 1.515l-1.84-1.586-.043-.038c-.349-.3-.684-.589-.923-.859-.262-.296-.541-.713-.541-1.275s.279-.979.541-1.275c.239-.27.574-.558.923-.859l.043-.038 1.84-1.585a1 1 0 0 1 1.41.104" clip-rule="evenodd"/><path fill="#AA99EC" d="M154.812 110.522c.982.103.545.103 2.086.103a.978.978 0 0 0 0-1.955c-1.609 0-1.015-.001-1.885-.092-.854-.089-1.337-.256-1.695-.509a3 3 0 0 1-.632-.596c-.255-.323-.425-.756-.517-1.542-.095-.81-.097-1.867-.097-3.391v-2.9c0-.267 0-.906.281-1.378.173-.29.394-.534.622-.658a2.6 2.6 0 0 1 1.233-.312l1.041.036c.38.008.823-.004 1.251-.119a2.42 2.42 0 0 0 1.709-1.709c.115-.428.127-.871.119-1.251l-.036-1.04c0-.469.124-.876.341-1.254.127-.22.348-.423.653-.6.462-.269 1.015-.271 1.353-.273l.993-.002c1.834 0 2.501.014 3.005.19.872.308 1.538.95 1.848 1.735.078.197.133.455.162.903.03.457.031 1.04.031 1.88v5.113a.974.974 0 1 0 1.947 0v-5.146c0-.8 0-1.447-.035-1.975-.036-.545-.111-1.03-.294-1.495-.529-1.34-1.638-2.373-3.014-2.858-.859-.303-2.331-.303-3.886-.302-2.84 0-4.526 0-5.909.487-2.22.782-3.994 2.444-4.837 4.58-.281.712-.406 1.477-.466 2.394-.059.9-.059 2.013-.059 3.432v2.583c0 1.448 0 2.621.11 3.558.114.974.357 1.811.927 2.53a5 5 0 0 0 1.034.978c.745.526 1.606.75 2.616.855" opacity=".4"/><path fill="#AA99EC" d="M125.417 138v-8.8h1.952v1.776h.544l-.592.48q0-1.12.656-1.76.672-.656 1.824-.656 1.344 0 2.096.864t.752 2.416v.832h-2v-.736q0-.816-.416-1.232t-1.184-.416q-.784 0-1.216.48-.416.48-.416 1.36V138zm7.978 0 3.072-4.544-2.864-4.256h2.256l1.36 2.16q.128.192.224.432l.176.384q.063-.144.176-.384.111-.24.224-.432l1.36-2.16h2.272l-2.864 4.256 3.056 4.544h-2.272l-1.52-2.416a4 4 0 0 1-.24-.448 7 7 0 0 0-.192-.384l-.176.384q-.112.24-.24.448L135.667 138zm13.177.16q-.672 0-1.088-.4-.4-.416-.4-1.072 0-.672.4-1.072.416-.416 1.088-.416t1.072.416q.416.4.416 1.072 0 .656-.416 1.072-.4.4-1.072.4m4.906-.16v-8.8h1.664v1.28h.336l-.304.224q0-.736.4-1.2t1.072-.464q.72 0 1.168.56.464.544.464 1.424l-.384-.576h.544l-.256.256q.016-.768.432-1.216.417-.448 1.104-.448.816 0 1.328.624.528.624.528 1.632V138h-1.76v-6.56q0-.432-.208-.672-.191-.256-.56-.256a.64.64 0 0 0-.544.256q-.176.24-.176.672V138h-1.6v-6.56q0-.432-.192-.672-.175-.256-.528-.256-.367 0-.576.256-.192.24-.192.672V138zm12.026.16q-1.344 0-2.128-.752-.768-.768-.768-2 0-.864.4-1.488a2.6 2.6 0 0 1 1.136-.96q.752-.352 1.76-.352h2.144v-.624q0-.64-.4-.976-.384-.352-1.152-.352-.704 0-1.136.272a.94.94 0 0 0-.448.768h-1.92q.064-1.2.992-1.92.944-.736 2.528-.736 1.68 0 2.608.784t.928 2.208V138h-1.952v-1.68h-.32l.352-.288q0 .656-.32 1.136-.32.464-.912.736-.593.256-1.392.256m.64-1.632q.88 0 1.392-.432t.512-1.152v-1.04H164q-.656 0-1.04.368-.384.352-.384.944 0 .593.4.96.416.352 1.168.352m10.17 1.472q-1.233 0-1.968-.704-.72-.72-.72-1.936v-4.352h-2.432V129.2h2.432v-2.48h2.016v2.48h3.504v1.808h-3.504v4.304a.98.98 0 0 0 .208.64q.224.24.608.24h2.608V138zm8.218.16q-1.137 0-1.984-.416a3.2 3.2 0 0 1-1.296-1.2q-.464-.784-.464-1.84v-2.208q0-1.072.464-1.84a3.1 3.1 0 0 1 1.296-1.184q.847-.432 1.984-.432 1.647 0 2.64.864.992.848 1.056 2.32h-1.968q-.048-.689-.512-1.056-.465-.384-1.216-.384-.816 0-1.28.448-.464.432-.464 1.248v2.224q0 .816.464 1.264t1.28.448q.751 0 1.216-.368.464-.384.512-1.072h1.968q-.065 1.472-1.056 2.336-.993.848-2.64.848m5.241-.16v-11.68h2v2.88l-.048 1.68h.544l-.592.464q.016-1.056.672-1.68.657-.624 1.744-.624 1.296 0 2.064.864.784.864.784 2.32V138h-2v-5.536q0-.816-.416-1.248-.416-.448-1.152-.448-.752 0-1.184.448-.416.448-.416 1.28V138z"/></svg>

<svg width="320" height="232" viewBox="0 0 320 232" fill="none" xmlns="http://www.w3.org/2000/svg">
<path fill-rule="evenodd" clip-rule="evenodd" d="M165.118 103.222C164.757 103.641 164.804 104.272 165.222 104.633L167.062 106.218C167.428 106.534 167.649 106.726 167.79 106.875C167.649 107.024 167.428 107.216 167.062 107.532L165.222 109.118C164.804 109.478 164.757 110.11 165.118 110.528C165.478 110.946 166.11 110.993 166.528 110.633L168.368 109.047C168.382 109.034 168.397 109.022 168.411 109.009C168.76 108.709 169.095 108.42 169.334 108.15C169.596 107.854 169.875 107.437 169.875 106.875C169.875 106.313 169.596 105.896 169.334 105.6C169.095 105.33 168.76 105.042 168.411 104.741C168.397 104.728 168.382 104.716 168.368 104.703L166.528 103.118C166.11 102.757 165.478 102.804 165.118 103.222Z" fill="#AA99EC"/>
<path fill-rule="evenodd" clip-rule="evenodd" d="M162.632 103.222C162.993 103.641 162.946 104.272 162.528 104.633L160.688 106.218C160.322 106.534 160.101 106.726 159.96 106.875C160.101 107.024 160.322 107.216 160.688 107.532L162.528 109.118C162.946 109.478 162.993 110.11 162.632 110.528C162.272 110.946 161.641 110.993 161.222 110.633L159.382 109.047C159.368 109.034 159.353 109.022 159.339 109.009C158.99 108.709 158.655 108.42 158.416 108.15C158.154 107.854 157.875 107.437 157.875 106.875C157.875 106.313 158.154 105.896 158.416 105.6C158.655 105.33 158.99 105.042 159.339 104.741C159.353 104.728 159.368 104.716 159.382 104.703L161.222 103.118C161.641 102.757 162.272 102.804 162.632 103.222Z" fill="#AA99EC"/>
<path opacity="0.4" d="M154.812 110.522C155.794 110.625 155.357 110.625 156.898 110.625C157.437 110.625 157.875 110.187 157.875 109.648C157.875 109.108 157.437 108.67 156.898 108.67C155.289 108.67 155.883 108.669 155.013 108.578C154.159 108.489 153.676 108.322 153.318 108.069C153.076 107.898 152.864 107.697 152.686 107.473C152.431 107.15 152.261 106.717 152.169 105.931C152.074 105.121 152.072 104.064 152.072 102.54L152.072 99.64C152.072 99.373 152.072 98.7344 152.353 98.2623C152.526 97.9713 152.747 97.7282 152.975 97.6044C153.341 97.4048 153.762 97.2915 154.208 97.2915L155.249 97.328C155.629 97.3359 156.072 97.3239 156.5 97.2091C157.334 96.9857 157.986 96.3343 158.209 95.5003C158.324 95.0721 158.336 94.6286 158.328 94.2485L158.292 93.2081C158.292 92.7405 158.416 92.3333 158.633 91.9549C158.76 91.7343 158.981 91.5324 159.286 91.3551C159.748 91.0862 160.301 91.0837 160.639 91.0822C160.977 91.0807 161.334 91.0795 161.632 91.0795C163.466 91.0795 164.133 91.0935 164.637 91.2708C165.509 91.5783 166.175 92.2199 166.485 93.0053C166.563 93.2019 166.618 93.4603 166.647 93.9083C166.677 94.365 166.678 94.9479 166.678 95.7882V100.901C166.678 101.439 167.114 101.875 167.651 101.875C168.189 101.875 168.625 101.439 168.625 100.901V95.755C168.625 94.9558 168.625 94.3083 168.59 93.7797C168.554 93.2351 168.479 92.7494 168.296 92.2852C167.767 90.9459 166.658 89.9116 165.282 89.4266C164.423 89.1241 162.951 89.1244 161.396 89.125C158.556 89.1246 156.87 89.1244 155.487 89.6115C153.267 90.3937 151.493 92.0564 150.65 94.1925C150.369 94.9044 150.244 95.6691 150.184 96.586C150.125 97.4867 150.125 98.5993 150.125 100.018V102.601C150.125 104.049 150.125 105.222 150.235 106.159C150.349 107.133 150.592 107.97 151.162 108.689C151.457 109.062 151.806 109.391 152.196 109.667C152.941 110.193 153.802 110.417 154.812 110.522Z" fill="#AA99EC"/>
<path d="M125.417 138V129.2H127.369V130.976H127.913L127.321 131.456C127.321 130.709 127.54 130.123 127.977 129.696C128.425 129.259 129.033 129.04 129.801 129.04C130.697 129.04 131.396 129.328 131.897 129.904C132.398 130.48 132.649 131.285 132.649 132.32V133.152H130.649V132.416C130.649 131.872 130.51 131.461 130.233 131.184C129.956 130.907 129.561 130.768 129.049 130.768C128.526 130.768 128.121 130.928 127.833 131.248C127.556 131.568 127.417 132.021 127.417 132.608V138H125.417ZM133.395 138L136.467 133.456L133.603 129.2H135.859L137.219 131.36C137.304 131.488 137.379 131.632 137.443 131.792C137.517 131.952 137.576 132.08 137.619 132.176C137.661 132.08 137.72 131.952 137.795 131.792C137.869 131.632 137.944 131.488 138.019 131.36L139.379 129.2H141.651L138.787 133.456L141.843 138H139.571L138.051 135.584C137.965 135.445 137.885 135.296 137.811 135.136C137.736 134.976 137.672 134.848 137.619 134.752C137.576 134.848 137.517 134.976 137.443 135.136C137.368 135.296 137.288 135.445 137.203 135.584L135.667 138H133.395ZM146.572 138.16C146.124 138.16 145.762 138.027 145.484 137.76C145.218 137.483 145.084 137.125 145.084 136.688C145.084 136.24 145.218 135.883 145.484 135.616C145.762 135.339 146.124 135.2 146.572 135.2C147.02 135.2 147.378 135.339 147.644 135.616C147.922 135.883 148.06 136.24 148.06 136.688C148.06 137.125 147.922 137.483 147.644 137.76C147.378 138.027 147.02 138.16 146.572 138.16ZM151.478 138V129.2H153.142V130.48H153.478L153.174 130.704C153.174 130.213 153.308 129.813 153.574 129.504C153.841 129.195 154.198 129.04 154.646 129.04C155.126 129.04 155.516 129.227 155.814 129.6C156.124 129.963 156.278 130.437 156.278 131.024L155.894 130.448H156.438L156.182 130.704C156.193 130.192 156.337 129.787 156.614 129.488C156.892 129.189 157.26 129.04 157.718 129.04C158.262 129.04 158.705 129.248 159.046 129.664C159.398 130.08 159.574 130.624 159.574 131.296V138H157.814V131.44C157.814 131.152 157.745 130.928 157.606 130.768C157.478 130.597 157.292 130.512 157.046 130.512C156.812 130.512 156.63 130.597 156.502 130.768C156.385 130.928 156.326 131.152 156.326 131.44V138H154.726V131.44C154.726 131.152 154.662 130.928 154.534 130.768C154.417 130.597 154.241 130.512 154.006 130.512C153.761 130.512 153.569 130.597 153.43 130.768C153.302 130.928 153.238 131.152 153.238 131.44V138H151.478ZM163.504 138.16C162.608 138.16 161.899 137.909 161.376 137.408C160.864 136.896 160.608 136.229 160.608 135.408C160.608 134.832 160.741 134.336 161.008 133.92C161.275 133.504 161.653 133.184 162.144 132.96C162.645 132.725 163.232 132.608 163.904 132.608H166.048V131.984C166.048 131.557 165.915 131.232 165.648 131.008C165.392 130.773 165.008 130.656 164.496 130.656C164.027 130.656 163.648 130.747 163.36 130.928C163.083 131.109 162.933 131.365 162.912 131.696H160.992C161.035 130.896 161.365 130.256 161.984 129.776C162.613 129.285 163.456 129.04 164.512 129.04C165.632 129.04 166.501 129.301 167.12 129.824C167.739 130.347 168.048 131.083 168.048 132.032V138H166.096V136.32H165.776L166.128 136.032C166.128 136.469 166.021 136.848 165.808 137.168C165.595 137.477 165.291 137.723 164.896 137.904C164.501 138.075 164.037 138.16 163.504 138.16ZM164.144 136.528C164.731 136.528 165.195 136.384 165.536 136.096C165.877 135.808 166.048 135.424 166.048 134.944V133.904H164C163.563 133.904 163.216 134.027 162.96 134.272C162.704 134.507 162.576 134.821 162.576 135.216C162.576 135.611 162.709 135.931 162.976 136.176C163.253 136.411 163.643 136.528 164.144 136.528ZM174.314 138C173.492 138 172.836 137.765 172.346 137.296C171.866 136.816 171.626 136.171 171.626 135.36V131.008H169.194V129.2H171.626V126.72H173.642V129.2H177.146V131.008H173.642V135.312C173.642 135.568 173.711 135.781 173.85 135.952C173.999 136.112 174.202 136.192 174.458 136.192H177.066V138H174.314ZM182.532 138.16C181.774 138.16 181.113 138.021 180.548 137.744C179.993 137.456 179.561 137.056 179.252 136.544C178.942 136.021 178.788 135.408 178.788 134.704V132.496C178.788 131.781 178.942 131.168 179.252 130.656C179.561 130.144 179.993 129.749 180.548 129.472C181.113 129.184 181.774 129.04 182.532 129.04C183.63 129.04 184.51 129.328 185.172 129.904C185.833 130.469 186.185 131.243 186.228 132.224H184.26C184.228 131.765 184.057 131.413 183.748 131.168C183.438 130.912 183.033 130.784 182.532 130.784C181.988 130.784 181.561 130.933 181.252 131.232C180.942 131.52 180.788 131.936 180.788 132.48V134.704C180.788 135.248 180.942 135.669 181.252 135.968C181.561 136.267 181.988 136.416 182.532 136.416C183.033 136.416 183.438 136.293 183.748 136.048C184.057 135.792 184.228 135.435 184.26 134.976H186.228C186.185 135.957 185.833 136.736 185.172 137.312C184.51 137.877 183.63 138.16 182.532 138.16ZM187.773 138V126.32H189.773V129.2L189.725 130.88H190.269L189.677 131.344C189.688 130.64 189.912 130.08 190.349 129.664C190.787 129.248 191.368 129.04 192.093 129.04C192.957 129.04 193.645 129.328 194.157 129.904C194.68 130.48 194.941 131.253 194.941 132.224V138H192.941V132.464C192.941 131.92 192.803 131.504 192.525 131.216C192.248 130.917 191.864 130.768 191.373 130.768C190.872 130.768 190.477 130.917 190.189 131.216C189.912 131.515 189.773 131.941 189.773 132.496V138H187.773Z" fill="#AA99EC"/>
</svg>
